X: 11021
M: 6/8
L: 1/8
K: Eb
(E/F/) !mf!|\
[K:Ebm] !p!f |\
gag fgf | efe =d=cd | B=c=d efg | (a2g) (g2f) |\
gag fgf | efe =d=cB | B=c=d eag | fe=d e2 "^D.C."E/F/ |]


